src/external.svg

<svg viewBox="0 0 16 16" fill="none" xmlns="http://www.w3.org/2000/svg"><path d="M2 2h6v1H3v10h10V8h1v6H2V2Zm10.25 1H10V2h4v4h-1V3.66L7.31 9.35l-.7-.71L12.25 3Z" fill="#111111"/></svg>

<svg viewBox="0 0 16 16" fill="none" xmlns="http://www.w3.org/2000/svg"><path d="M2 2H8V3H3V13H13V8H14V14H2V2ZM12.25 3H10V2H14V6H13V3.66L7.31 9.35L6.61 8.64L12.25 3Z" fill="#111111"/></svg>
